icons/mail-close-line.svg

<svg xmlns="http://www.w3.org/2000/svg" width="24" height="24" fill="none"><g clip-path="url(#a)"><g><path fill="#121212" d="M22 14H20V7.238L12.072 14.338L4 7.216V19H15V21H3C2.73478 21 2.48043 20.8946 2.29289 20.7071C2.10536 20.5196 2 20.2652 2 20V4C2 3.73478 2.10536 3.48043 2.29289 3.29289C2.48043 3.10536 2.73478 3 3 3H21C21.2652 3 21.5196 3.10536 21.7071 3.29289C21.8946 3.48043 22 3.73478 22 4V14ZM4.511 5L12.061 11.662L19.502 5H4.511ZM21.414 19L23.536 21.121L22.121 22.536L20 20.414L17.879 22.536L16.464 21.121L18.586 19L16.464 16.879L17.879 15.464L20 17.586L22.121 15.464L23.536 16.879L21.414 19Z"/></g></g><defs><clipPath id="a"><rect width="24" height="24" fill="white"/></clipPath></defs></svg>

<svg width="24" height="24" fill="none" xmlns="http://www.w3.org/2000/svg"><g clip-path="url(#a)"><path d="M22 14h-2V7.238l-7.928 7.1L4 7.216V19h11v2H3a1 1 0 0 1-1-1V4a1 1 0 0 1 1-1h18a1 1 0 0 1 1 1v10ZM4.511 5l7.55 6.662L19.502 5H4.511Zm16.903 14 2.122 2.121-1.415 1.415L20 20.414l-2.121 2.122-1.415-1.415L18.586 19l-2.122-2.121 1.415-1.415L20 17.586l2.121-2.122 1.415 1.415L21.414 19Z" /></g><defs><clipPath id="a"><path fill="#fff" d="M0 0h24v24H0z"/></clipPath></defs></svg>
